packages/sources/assets/src/assets/flag-bi.svg

<svg width="28" height="20" viewBox="0 0 28 20" fill="none" xmlns="http://www.w3.org/2000/svg">
<rect width="28" height="20" rx="2" fill="white"/>
<mask id="mask0_503_3518" style="mask-type:alpha" maskUnits="userSpaceOnUse" x="0" y="0" width="28" height="20">
<rect width="28" height="20" rx="2" fill="white"/>
</mask>
<g mask="url(#mask0_503_3518)">
<rect width="28" height="20" fill="#E4233B"/>
<path fill-rule="evenodd" clip-rule="evenodd" d="M0 0L12 10L0 20V0Z" fill="#34CD4E"/>
<path fill-rule="evenodd" clip-rule="evenodd" d="M28 0L16 10L28 20V0Z" fill="#34CD4E"/>
<path fill-rule="evenodd" clip-rule="evenodd" d="M16.9621 6.39375C16.1563 5.73116 15.1246 5.33334 14 5.33334C12.8754 5.33334 11.8437 5.73116 11.0379 6.39375L-1.28247 -1.91644L-2.77365 0.294324L9.54576 8.60387C9.40773 9.0447 9.33333 9.51366 9.33333 10C9.33333 10.4863 9.40773 10.9553 9.54576 11.3961L-2.77365 19.7057L-1.28247 21.9165L11.0379 13.6063C11.8437 14.2688 12.8754 14.6667 14 14.6667C15.1246 14.6667 16.1563 14.2688 16.9621 13.6063L29.2825 21.9165L30.7737 19.7057L18.4542 11.3961C18.5923 10.9553 18.6667 10.4863 18.6667 10C18.6667 9.51366 18.5923 9.0447 18.4542 8.60387L30.7737 0.294324L29.2825 -1.91644L16.9621 6.39375Z" fill="white"/>
<path fill-rule="evenodd" clip-rule="evenodd" d="M13.9998 8.6667L13.057 8.94284L13.3332 8.00003L13.057 7.05722L13.9998 7.33336L14.9426 7.05722L14.6665 8.00003L14.9426 8.94284L13.9998 8.6667ZM11.9998 12L11.057 12.2762L11.3332 11.3333L11.057 10.3905L11.9998 10.6667L12.9426 10.3905L12.6665 11.3333L12.9426 12.2762L11.9998 12ZM15.057 12.2762L15.9998 12L16.9426 12.2762L16.6665 11.3333L16.9426 10.3905L15.9998 10.6667L15.057 10.3905L15.3332 11.3333L15.057 12.2762Z" fill="#DF2239"/>
</g>
</svg>

<svg width="28" height="20" fill="none" xmlns="http://www.w3.org/2000/svg"><rect width="28" height="20" rx="2" fill="#fff"/><mask id="a" style="mask-type:alpha" maskUnits="userSpaceOnUse" x="0" y="0" width="28" height="20"><rect width="28" height="20" rx="2" fill="#fff"/></mask><g mask="url(#a)"><path fill="#E4233B" d="M0 0h28v20H0z"/><path fill-rule="evenodd" clip-rule="evenodd" d="m0 0 12 10L0 20V0Zm28 0L16 10l12 10V0Z" fill="#34CD4E"/><path fill-rule="evenodd" clip-rule="evenodd" d="M16.962 6.394A4.648 4.648 0 0 0 14 5.334a4.648 4.648 0 0 0-2.962 1.06l-12.32-8.31-1.492 2.21 12.32 8.31a4.665 4.665 0 0 0 0 2.792l-12.32 8.31 1.492 2.21 12.32-8.31A4.648 4.648 0 0 0 14 14.666a4.648 4.648 0 0 0 2.962-1.06l12.32 8.31 1.492-2.21-12.32-8.31a4.663 4.663 0 0 0 0-2.792l12.32-8.31-1.492-2.21-12.32 8.31Z" fill="#fff"/><path fill-rule="evenodd" clip-rule="evenodd" d="m14 8.667-.943.276.276-.943-.276-.943.943.276.943-.276-.277.943.277.943L14 8.667ZM12 12l-.943.276.276-.943-.276-.943.943.277.943-.277-.277.943.277.943L12 12Zm3.057.276L16 12l.943.276-.277-.943.277-.943-.943.277-.943-.277.276.943-.276.943Z" fill="#DF2239"/></g></svg>
